X:1
T:NEIL MacINNES (Seconds)
M:3/4
L:1/8
Q:80
C:W.J. Campbell
S:March
K:HP
[| {g}A3/2B/2{GdG}c2{g}e2|
{gcd}c{e}B{gBd}B2{d}A2|
{g}A3/2B/2{GdG}c2{ag}a3/2g/2|  !
{afg}fe{g}f4|
{g}e3/2f/2{g}e2{gcd}c2|
{g}e3/2f/2{gcd}c3/2{e}B/2{gcd}c2|  !
{g}A3/2B/2{GdG}c2{ag}a2|
{gcd}c{e}B{G}A4|] [|
{g}A3/2B/2{GdG}c2{g}c2|  !
A{d}B{gBd}B2{e}A2|
{g}A3/2B/2{GdG}c2{g}f3/2e/2|
{gde}d3/2c/2{Gdc}d4|  !
{g}c3/2d/2{g}c2{g}A2|
{g}c3/2d/2{g}A2{d}B2|
{g}A3/2{g}AB/2{GdG}c2{g}f2|  !
A/2{d}B3/2{G}A4|] [|
{g}e3/2f/2{g}e2{gcd}ce|
{G}e2f/2{e}f3/2{ag}a2|  !
{gcd}c2B/2{d}A3/2{g}B{GdG}c|
{g}f3/2e/2{gcd}c4|
{g}e3/2f/2{g}e2{gcd}ce|  !
{A}e2f/2{e}f3/2{ag}a2|
A3/2B/2{GdG}c2{ag}a2|
{gcd}c{e}B{G}A4|] [|  !
{g}c3/2d/2{g}c2{g}Ac|
{G}c2d/2{c}d3/2{g}f2|
{g}A2B/2A3/2B{GdG}c|  !
{g}d3/2c/2{G}A4|
{g}c3/2d/2{g}c2{g}A2|
{g}c3/2d/2{g}AB{g}A2|  !
{g}A3/2B/2{GdG}c2{g}f2|
A/2{d}B3/2{G}A4|]

